X: 21156
T: Katherine Brennan's Favourite
R: hornpipe
M: 4/4
K: Dmajor
g>ed>B G2 G2|(3cBA B>G A2 (3EFG|D>G (3Bcd g2 g2|(3efg a>g f2 (3def|
g>ed>B G>DB>D|(3cBA B>G A2 E>G|(3cBA B>G A>G (3EFG|D>G (3FGA G2:|
g>fg>a b2 (3agf|g2 (3fed B2 A>G|(3EFG A>B c2 (3BAG|(3EFG (3GAB c2 (3def|
g2 g>a b2 a2|g>fe>d B2 B2|(3cBA (3BAG A>G (3EFG|D>GF>A G2:|
d2 A>F D2 E>F|G2 F>G E2 B,2|A,2 (3DFA d2 A2|(3Bcd e>d c2 (3ABc|
d>BA>F D2 D2|G>E (3FED E>DB,>D|G2 (3FED E2 (3B,CD|A2 D2 D2:|
d2 d>e f2 e2|d2 (3cBA F2 (3FED|B,2 E2 G2 (3FED|B,DEF G2 (3ABc|
d>cd>e (3fga e>c|d>cB>A F2 E>F|(3GFE (3FED E>DB,>G,|A,2 D2 D2:|
gedB G2 G2|cABG A2 EG|DGBd g2 g2|egag f2 df|
gedB GDBD|cABG A2 EG|cABG AGEG|DGFA G2:|
gfga b2 af|g2 fd B2 AG|EGAB c2 BG|EGAB c2 df|
g2 ga b2 a2|gfed B2 B2|cABG AGEG|DGFA G2:|
d2 AF D2 EF|G2 FG E2 B,2|A, D2 d3 A|Bded c2 Ac|
dBAF D2 D2|GEFD EDB,D|G2 FD E2 B,D|A2 D2 D2:|
d2 de f2 e2|d2 cA F2 ED|B,2 E2 G2 FD|B,DEF G2 Ac|
dcde faec|dcBA F2 EF|GEFD EDB,G,|A,2 D2 D2:|

